icons/1_Primary/Torum.svg

<svg xmlns="http://www.w3.org/2000/svg" width="1024" height="1024" fill="none">
   <g clip-path="url(#a)">
      <path fill="#FF837D" d="M512 1024c282.77 0 512-229.23 512-512S794.77 0 512 0 0 229.23 0 512s229.23 512 512 512Z"/>
      <path fill="#fff" d="M459.64 260.41a116.728 116.728 0 0 1 93.69-4.85c8.45 3.08 16.27 7.56 24 12.11l120.92 69.83c7.54 4.27 15.07 8.64 21.78 14.17a116.22 116.22 0 0 1 43.35 92v148.671c0 4.74.13 9.499-.26 14.229a116.366 116.366 0 0 1-46.64 85.081c-7.63 5.76-16.17 10.12-24.36 15l-94.39 54.74c-8.27 4.659-16.3 9.77-24.78 14a11.316 11.316 0 0 1-13-4.571 9.867 9.867 0 0 1-1.6-5.83c-.14-78 0-155.939-.07-233.899-.38-2.88 3.13-5.3 5.59-3.56l33.36 20.74c2.42 1.47 4.77 3.069 7.31 4.329a46.7 46.7 0 0 0 46.31-81 96010.3 96010.3 0 0 0-110.12-68.47c-3.44-2.1-6.79-4.41-10.52-6a46.935 46.935 0 0 0-35-1.07c-6.46 2.3-12 6.48-17.81 9.95l-105.13 65.45a46.704 46.704 0 0 0-14.397 63.661A46.7 46.7 0 0 0 421.18 551c12.61-7.81 25.19-15.669 37.8-23.479a3.644 3.644 0 0 1 3.63-.053 3.636 3.636 0 0 1 1.87 3.113V765.04c.13 6.62-7 11.78-13.29 10.291-2.69-.68-5-2.321-7.46-3.56l-106-61.74c-7.68-4.53-15.47-8.89-23.08-13.531a116.27 116.27 0 0 1-54-99.849V439.84a116.3 116.3 0 0 1 57.87-98.17l116.39-67.21c8.23-4.64 16.31-9.66 24.73-14.05Z"/>
   </g>
   <defs>
      <clipPath id="a">
         <path fill="#fff" d="M0 0h1024v1024H0z"/>
      </clipPath>
   </defs>
</svg>

<svg width="1024" height="1024" viewBox="0 0 1024 1024" fill="none" xmlns="http://www.w3.org/2000/svg">
<g clip-path="url(#clip0_2_3696)">
<path d="M512 1024C794.77 1024 1024 794.77 1024 512C1024 229.23 794.77 0 512 0C229.23 0 0 229.23 0 512C0 794.77 229.23 1024 512 1024Z" fill="#FF837D"/>
<path d="M459.64 260.41C474.072 253.166 489.85 248.994 505.976 248.159C522.103 247.324 538.227 249.844 553.33 255.56C561.78 258.64 569.6 263.12 577.33 267.67L698.25 337.5C705.79 341.77 713.32 346.14 720.03 351.67C733.757 362.716 744.793 376.738 752.303 392.676C759.814 408.615 763.601 426.053 763.38 443.67V592.341C763.38 597.081 763.51 601.84 763.12 606.57C761.925 623.273 757.139 639.52 749.09 654.203C741.041 668.886 729.917 681.66 716.48 691.651C708.85 697.411 700.31 701.771 692.12 706.651L597.73 761.391C589.46 766.05 581.43 771.161 572.95 775.391C570.582 776.167 568.024 776.14 565.674 775.314C563.323 774.487 561.311 772.908 559.95 770.82C558.82 769.092 558.26 767.053 558.35 764.99C558.21 686.99 558.35 609.051 558.28 531.091C557.9 528.211 561.41 525.791 563.87 527.531L597.23 548.271C599.65 549.741 602 551.34 604.54 552.6C615.234 558.087 627.631 559.238 639.152 555.816C650.674 552.394 660.432 544.662 666.398 534.228C672.363 523.794 674.076 511.462 671.18 499.797C668.284 488.132 661.003 478.033 650.85 471.6C614.183 448.767 577.477 425.944 540.73 403.13C537.29 401.03 533.94 398.72 530.21 397.13C519.118 392.272 506.578 391.888 495.21 396.06C488.75 398.36 483.21 402.54 477.4 406.01L372.27 471.46C362.032 478.09 354.795 488.462 352.104 500.358C349.414 512.254 351.485 524.731 357.873 535.121C364.262 545.51 374.462 552.988 386.292 555.956C398.122 558.923 410.644 557.145 421.18 551C433.79 543.19 446.37 535.331 458.98 527.521C459.527 527.195 460.151 527.019 460.788 527.009C461.425 527 462.053 527.158 462.61 527.468C463.167 527.778 463.633 528.228 463.961 528.775C464.289 529.321 464.468 529.943 464.48 530.581V765.04C464.61 771.66 457.48 776.82 451.19 775.331C448.5 774.651 446.19 773.01 443.73 771.771L337.73 710.031C330.05 705.501 322.26 701.141 314.65 696.5C297.867 685.859 284.091 671.093 274.638 653.613C265.184 636.133 260.368 616.521 260.65 596.651V439.84C261.062 419.887 266.602 400.375 276.737 383.182C286.872 365.989 301.261 351.693 318.52 341.67L434.91 274.46C443.14 269.82 451.22 264.8 459.64 260.41Z" fill="white"/>
</g>
<defs>
<clipPath id="clip0_2_3696">
<rect width="1024" height="1024" fill="white"/>
</clipPath>
</defs>
</svg>
